!!!OTL: 868. Gefallen am Ehstand. / (Polterabendlied.)
!!!ARE: Europa, Mitteleuropa, Deutschland, Hessen, Wetterau
!!!SCT: E0868A
!!!TXL: @@DE
!!!YEM: Copyright 1995, estate of Helmut Schaffrath.
**kern	**text
*ICvox	*
!! Mixed meters:  2/4; 3/4
*M2/4	*
*k[f#]	*
*G:	*
=1	=1
!LO:TX:a:t=Ruhig.	!
!LO:TX:a:t=Vom Odenwald und der Bergſtr. Erk III. 1,12. / Ʒiemlich gleich aus Meurs, Erk III. 1, 13.	!
{4g	Mir
4d	ge-
=2	=2
8e	-fällt
8g	das
8f#	Eh-
8g	-ſtandsle-
=3	=3
8.aL	.
16bJ	.
4a	-ben
=4	=4
4g	beſ-
4a}	-ſer,
=5	=5
*M3/4	*
{8b	als
16ddL	das
16eeJ	.
16ddL	Klo-
16ccJ	.
16bL	-ſter-
16aJ	.
8b	-gehn,
8g	ja
=6	=6
(4e	Klo-
4cc)	.
4f#	-ſter-
=7	=7
2.g}	-gehn.
=8	=8
{4b	Jn
4dd	das
8cc	Klo-
8cc	-ſter
=9	=9
8.aL	mag
16g	.
8f#J	.
8g	ich
4a;}	nicht,
=10	=10
*M2/4	*
{4g	ich
4a	bin
=11	=11
*M3/4	*
8b	ſchon
(16dd	ʒu
16ee)	der
16ddL	Eh
16ccJ	.
16bL	verp-
16aJ	.
8b	-flicht,
8g	ja
=12	=12
(4e	Eh
4cc)	.
4f#	ver-
=13	=13
2.g}	-pflicht.
==	==
!!!AGN: Hochzeits -, Ehestands - Lied
!!!ONB: ESAC (Essen Associative Code) Database: ERK2
!!!AMT: irregular
!!!AIN: vox
!!!EED: Helmut Schaffrath
!!!EEV: 1.0
!!!GTL: Hochzeits- und Ehrstandslieder, nebst Nonnenklagen
!!!URL-scan: https://rosdok.uni-rostock.de/mcrviewer/recordIdentifier/rosdok_ppn745177662/iview2/phys_0667.iview2?x=193.8995864193107&y=218.03174773510545&scale=0.7029437510502773&rotation=0&layout=singlePageLayout
!!!ENC: Anna Maria Matuszewska
!!!EEV: 2024/12/18
*-	*-
